pix_core/f/writer.svg

<svg fill="none" preserveAspectRatio="xMinYMid meet" viewBox="0 0 24 24" xmlns="http://www.w3.org/2000/svg"><g fill="#fff"><path clip-rule="evenodd" d="m5.5 5c0-.82843.67157-1.5 1.5-1.5h6c.2761 0 .5.22386.5.5v3c0 .82843.6716 1.5 1.5 1.5h3c.2761 0 .5.22386.5.5v2.5c0 .2761.2239.5.5.5s.5-.2239.5-.5v-2.67157c0-.66304-.2634-1.29893-.7322-1.76777l-3.8285-3.82843c-.4688-.46884-1.1047-.73223-1.7677-.73223h-6.1716c-1.38071 0-2.5 1.11929-2.5 2.5v14c0 1.3807 1.11929 2.5 2.5 2.5h3.5c.2761 0 .5-.2239.5-.5s-.2239-.5-.5-.5h-3.5c-.82843 0-1.5-.6716-1.5-1.5zm9 2v-2.79289l3.2929 3.29289h-2.7929c-.2761 0-.5-.22386-.5-.5z" fill-rule="evenodd"/><path clip-rule="evenodd" d="m20.2126 13.5056c-.704-.704-1.8453-.704-2.5492 0l-4.2368 4.2368c-.0549.0548-.0963.1218-.1208.1954l-.921 2.7631c-.0599.1797-.0132.3778.1207.5117.134.1339.332.1807.5117.1208l2.7631-.9211c.0737-.0245.1406-.0659.1955-.1208l4.2368-4.2368c.7039-.7039.7039-1.8452 0-2.5491zm-1.8421.7071c.3134-.3135.8216-.3135 1.135 0 .3134.3134.3134.8215 0 1.1349l-4.1534 4.1534-1.7024.5675.5675-1.7025z" fill-rule="evenodd"/><path d="m8 10.5c-.27614 0-.5.2239-.5.5s.22386.5.5.5h8c.2761 0 .5-.2239.5-.5s-.2239-.5-.5-.5z"/><path d="m7.5 14c0-.2761.22386-.5.5-.5h6.5c.2761 0 .5.2239.5.5s-.2239.5-.5.5h-6.5c-.27614 0-.5-.2239-.5-.5z"/><path d="m8 16.5c-.27614 0-.5.2239-.5.5s.22386.5.5.5h3.5c.2761 0 .5-.2239.5-.5s-.2239-.5-.5-.5z"/></g></svg>

<svg viewBox="0 0 24 24" fill="none" xmlns="http://www.w3.org/2000/svg" preserveAspectRatio="xMinYMid meet">
<path fill-rule="evenodd" clip-rule="evenodd" d="M5.5 5C5.5 4.17157 6.17157 3.5 7 3.5H13C13.2761 3.5 13.5 3.72386 13.5 4V7C13.5 7.82843 14.1716 8.5 15 8.5H18C18.2761 8.5 18.5 8.72386 18.5 9V11.5C18.5 11.7761 18.7239 12 19 12C19.2761 12 19.5 11.7761 19.5 11.5V8.82843C19.5 8.16539 19.2366 7.5295 18.7678 7.06066L14.9393 3.23223C14.4705 2.76339 13.8346 2.5 13.1716 2.5H7C5.61929 2.5 4.5 3.61929 4.5 5V19C4.5 20.3807 5.61929 21.5 7 21.5H10.5C10.7761 21.5 11 21.2761 11 21C11 20.7239 10.7761 20.5 10.5 20.5H7C6.17157 20.5 5.5 19.8284 5.5 19V5ZM14.5 7V4.20711L17.7929 7.5H15C14.7239 7.5 14.5 7.27614 14.5 7Z" fill="#fff"/>
<path fill-rule="evenodd" clip-rule="evenodd" d="M20.2126 13.5056C19.5086 12.8016 18.3673 12.8016 17.6634 13.5056L13.4266 17.7424C13.3717 17.7972 13.3303 17.8642 13.3058 17.9378L12.3848 20.7009C12.3249 20.8806 12.3716 21.0787 12.5055 21.2126C12.6395 21.3465 12.8375 21.3933 13.0172 21.3334L15.7803 20.4123C15.854 20.3878 15.9209 20.3464 15.9758 20.2915L20.2126 16.0547C20.9165 15.3508 20.9165 14.2095 20.2126 13.5056ZM18.3705 14.2127C18.6839 13.8992 19.1921 13.8992 19.5055 14.2127C19.8189 14.5261 19.8189 15.0342 19.5055 15.3476L15.3521 19.501L13.6497 20.0685L14.2172 18.366L18.3705 14.2127Z" fill="#fff"/>
<path fill="#fff" d="M8 10.5C7.72386 10.5 7.5 10.7239 7.5 11C7.5 11.2761 7.72386 11.5 8 11.5L16 11.5C16.2761 11.5 16.5 11.2761 16.5 11C16.5 10.7239 16.2761 10.5 16 10.5L8 10.5Z" fill="#fff"/>
<path fill="#fff" d="M7.5 14C7.5 13.7239 7.72386 13.5 8 13.5H14.5C14.7761 13.5 15 13.7239 15 14C15 14.2761 14.7761 14.5 14.5 14.5H8C7.72386 14.5 7.5 14.2761 7.5 14Z" fill="#fff"/>
<path fill="#fff" d="M8 16.5C7.72386 16.5 7.5 16.7239 7.5 17C7.5 17.2761 7.72386 17.5 8 17.5H11.5C11.7761 17.5 12 17.2761 12 17C12 16.7239 11.7761 16.5 11.5 16.5H8Z" fill="#fff"/>
</svg>
